/* XPM */
static char *result[] = {
/* columns rows colors chars-per-pixel */
"80 80 47 1 ",
"  c #687990",
". c #707F95",
"X c #6F8095",
"o c #718196",
"O c #758499",
"+ c #78879C",
"@ c #7B899E",
"# c #7F8DA1",
"$ c #808FA2",
"% c #8492A5",
"& c #8996A8",
"* c #8D9AAB",
"= c #919EAE",
"- c #939FB0",
"; c #95A1B1",
": c #9AA5B5",
"> c #9DA8B7",
", c #9EA9B8",
"< c #A2ADBB",
"1 c #A6B0BE",
"2 c #A8B2BF",
"3 c #ABB5C1",
"4 c #AEB8C4",
"5 c #B1BAC6",
"6 c #B6BEC9",
"7 c #BBC2CD",
"8 c #BFC6D0",
"9 c #C0C7D0",
"0 c #C4CBD4",
"q c #C9CFD7",
"w c #C9CFD8",
"e c #CCD2DA",
"r c #D1D6DD",
"t c #D3D8DF",
"y c #D6DAE1",
"u c #DADEE4",
"i c #DEE2E6",
"p c #DFE3E8",
"a c #E2E5EA",
"s c #E6E9ED",
"d c #E9EBEF",
"f c #ECEEF1",
"g c #EEF1F3",
"h c #F2F4F6",
"j c #F6F7F8",
"k c #F7F8F9",
"l c #FDFDFE",
/* pixels */
"                                                                                ",
"                                                                                ",
"                                                                                ",
"                                                                                ",
"                                                                                ",
"                      .      o   . .  ..@&=:>,><*#%@@-;-;=&&#%%#%+ooo           ",
"     O@           o*50eq0we86:*%%%%%%*;>3ehllllky81&%&&:sghllllllljfr053=-==    ",
"     .%X          +1uhlllljfy3*%%#%%%&->5yhklllke3;&##%%*;<dhkllkkllllllklll@   ",
"     XXX         o%7dkllllfst1*$%##%&*=:8pklllljr3-$$$$$%%*<30hjeeggglllllllO   ",
"                o@-ehllllkay7:&$%###%*=:8sjllllsy9,&%$%&&&*;30fge7,*:sggllll+   ",
"               X+&6akllllsq5<-&&%%%%%*;,qgkllllfa8:&&$$&&&-:<9ay71*%%&&:shgl+   ",
"             X  o&6pklllla8<=*%%##&**:,4ykllllkhp6-&&$$&&&*:3eae7;&%#%%%*;<f+   ",
"               oo*7sllllka8:&$%$###&*<5efkllllhfu6=%%$$$%*=;4ufu0,&#@%%%&&=2X   ",
"             XoO%3pkllllja9:&$$$#%%&*>5rfkllllauw<*%%$$$%&=;5upyw3*&%#&&&;;<X   ",
"         X  X@%%=7fkllllfp9;&$$$%%%&-:3ygklllky73:*%%$%$%&*;7adse<&&%%&&%*:<X   ",
"            X@=;2yklllllfr3*$$$$%%&;,38akllllge2-*&%$$%&&-<20ffd0;&%%#$%&*;<X   ",
"          X oO%=5akllllkde<%$$$#$&<676rflllllde1&%%$#$%&&:50pfsp8:%####&**=,X   ",
"             o@-6thllllkaw>%#$$$%=10eqpjlllllde<&%$$$$$%&:30aue02=%%%%##%*=;X   ",
"            XO@%5ajlllljar6=$$$$&;>60edlllllhse<&$$$$%$&*-<0ay7<:*&&#%&#&*;:X   ",
"           XoOO*7dklllkjsy7:&$#$&=;27rdkllllhp7;%$%%$%&-:36ydr5:*&###&&&=<<7X   ",
"          o O$%1ehlllllhaw3-&%$$%&;37efkllllgy3*$$$$$%-3660adt5=%#%###%&=227XX  ",
"           oO%;9dkllllkgu7<-&%%%%=235efklllkft3*$###$*,7rwtffu6=&#%##%%&*<7qXX  ",
"        . . oO=rhlllllkdq<><&%%%&:760pjllllkdy7>%$$$&-:30qpfsr3&%####%%=::7rO   ",
"           oO@<tjllllljp6:;>*$&&=:79tgkllllkdp0<*$$$%*-<6qafu0:%%%##%*:<277r@X  ",
"           X@%2akllllljy3=>>*%&*;:27ujllllljst6>&%$$$%-<6qada9-$####%=388478+   ",
"          oo@=9dlllllkfe1;>;&%&*,><7ajlllllha01;*%$%&=<249adu9:&###%&;3qq752+   ",
"        XoO$%<rflllllja0<:-*&%&-1250slllllkgu5:<=$%%&=667tdfiw3*%##%=;:7873;+   ",
"         o%=&>rhllllljs0<:=%$&=>557rgkllllld0>;<=&%&=-49wdgfar4=&##%%=,4773*O   ",
"        Xo==%<aklllllja9>=&%*>><577phlllllka6;=<=&&*-:<6rhjfy7<&%%##%-,2484=+   ",
"         o%=;7dllllllja6:&%$%=;3qq0pjlllllhu6:;:&%&*;<<4rghaw3<;%%%&&,43472*+   ",
"          O$<rhlllllkju7<*%$%%=6eq0alllllkdr5:;=&%%*<147yhhu6>>;%%&&=17777;%+   ",
"        ooO=7dklllllkhuq6=&%%%;7r0eglllllldr2:=&%%=;346qshgr<=>>&%&*;,77q7-%+   ",
"       Xo+@:ehlllllkhdy03*%%%&*<60ujlllllkfr2=&%&;,>277tdjd0<=<;&&&=;:27e7:%+   ",
"          +>ukllllkhsuyw2*%%%*=:4edllllllkf0<*%$%=;<9q9tfhp7,;;*%%&-1128eq3*@   ",
"         o@3skllllkdyqrr5*%%&;117ahllllllka01=&%%%*1ee9thgu7<;*%%&&,337qte4=#   ",
"       X o%7fllllljaq007,%%&*:><6ajlllllkjae7,&%%%=3ee0djgu6:;*%&=:1478er7,=@   ",
"       oO+<ujlllllhu7665;%%&%*=>0flllllkhfpq7;%%%%&:57rdkht5;&%%=,:2870y04,;#   ",
"       Xo&7fllllllhu9466;%&==;;<eglllllkdate6=%%%&=;10ajljt2;&$$&&:7e88e7:,:#   ",
"       X+*0gllllllfe623<*%%*,<<7pjlllllhpeet7;%%&=<15tfjjdr7<*%%%&,0e0001-::#   ",
"      ++%1ihlllllkfw3><*&%&=:,2wgkllllkdr0003*%%&;,,3thkhde91*%%&&:7q0e0>-,:#X  ",
"      o#;8sklllllka7;-;*%&*:::3thlllllka0666,&%%%*=-5ahhfar9,&%%&&*,50e7<;;*@   ",
"      #%<egllllllht1***&&&:6320akllllljaq566,&%==;->7dhduetq<%%%&;,<8ye7,;*&%   ",
"      +&<yjlllllkhe,&=**&*2067yfllllllhu9233;&%&;<>3rhhueqr0<&%%*<220it7:;&%&   ",
"      O&5sklllllld7:*;,:*:7e70phllllllhy6<<=&%&&:><7ahft9793*$%&*;;1way5;&%&;   ",
"      +*7fklllllki6;;152<30780aklllllkdq<=;=&%&;::2qdjfr6673&%&&&*;1tdt2;&%#&   ",
"      +;ehllllllhw,*;12,:46470sklllllka7=**&%&=53<5yhjsr635<*&**:::5tdr7,&%%&   ",
"      +3sklllllkd7;*=11;*<137egllllllju3**=*&&>975esjks0322=&%%=1,10dae02*&%%   ",
"      %0hllllllka6=*-13:;1<17yjllllllje<*=,,=*5w78ygjha6>,;&%%&;:,5tdpe9,%%%%   ",
"      :pjllllllhe2-:::1:*,,10sklllllls0:*<43<<7078yhkhr3*-*&&&:>,<7tuetw<%%%&o  ",
"      3aklllllkd7:,41;===;,3rhllllllki3-->31:16560ujjf8;*=&&%*3727ere0r0<&%%=o  ",
"      8fllllllkp4;<72-*-=*:5aklllllkhe>**<3;*,1160akja7-&=-*&:7070rr8775*%%&*   ",
"     orhllllllhr1>703=&==-18dlllllllg0:&=>4<*<3<6egkjp3==<<>-2q07wuw7672*%&&&   ",
"      sllllllld914002=&=;,4ehllllllkp6;-::<<-:<<6ujlfw<*:45<17767wue6461*&**;o  ",
"     #hllllllks027e01;*;,27ihllllllhe<:33;;**;><0fkja6-=,<<;:3357ru0221;&%%=1o  ",
"     *kllllllkse80e7:**-17edklllllkf8::55:**;*;1rhkjp3**;31=:2<59tt7,,;&%&&;:X  ",
"     =klllllkfe578q7;**-,7ihllllllkp5>406:***-:5ujlje<*-:32=:1<30ir2=-*&%&;,:o  ",
"     <lllllljy5>1772***:30akllllllhr119q5;&*;:38skka7::1:;:==,<3ep7:*=&&&*273o  ",
"     6lllllks6:<4705:-;40tfllllllkgr55qe4:*;:17egkjy2;15>====;,7pp7;&==*&;706X  ",
"     6lllllky2>70ww4;;:7agkllllllkhy00w01*&-<5qijkge,:57<=*;=;<0di5*=,<>*2w07+  ",
"     7lllllg0><we07,*-10djlllllllju65900<***:3efkka7,400<*&==,4raq<=:35<17967+  ",
"     7llllka7:3e072;&&:wfkllllllka7<>596;&*;<7yjlju517e7<**;:37up6==>1<;;4347+  ",
"     6lllljr<:5005:&%&:ehkllllllhq<<2607>;-<8eaklja060e7:*;,16wai3**;21=:2<50+  ",
"     7llllf0>,5005:&&*<tjllllllks5:300e7:;:3yfjkkhy97we5-&*;18tdr<*=:22=:1<20+  ",
"     6lllkp3-17073=&*<7uhlllllljy3>7r003-*:6pjklju6<6002=*&;10aa7::<:::==,<4r@  ",
"     5lllkp2>60002*&*<7yhllllllhq,<0e75:&&=7sjlkf8<>378,&*;16esy3;33>=--*;,7a#  ",
"     3lllka7500e0<**;<7pjlllllja6;<0q7<*&%*7fklge<>36003;;>0uade>:473**;=;10h@  ",
"     7lllju66qqr8:*;>20fkllllljr1:3706<*&&:0flkf0:3eqe8,;;1edgp7,380,&&==:3eh@  ",
"     6lllku647003=*>45ehlllllkf7;>7095;&&:5egkka5:5eq84;&=3ugju537e8,**;:37pk#  ",
"     6lllhy66776>*;367ujlllllls7:30005;&&,7edkhr1>7e83:*&&1yggp040e5>*;>170dk#  ",
"     7llljp07795<;<66ehlllllllf0390qw5-&*>4ehkd7,>7083-&&&1ijgi88ee4;**;38yhl#  ",
"     7lllhst7663>;570pkllllllkd930qeq<*=:17ajju3:18871-&&,7pgi7<7803;&*;10skl;  ",
"     6llkdpt607>=>70qdkllllllkd9370w7:*;339skhe>:5887,*&;38pp81:177,&&-35egll;  ",
"     <fsq76<-<>=*;35efkklllllks066772==<56whlhr<300e8:&&;18ye1:35003;;:8yakll5  ",
"      .  o        O+*<3<56770er997961;>560alkjt3600e5;*;:30p8,30qe81;;1wdjklf:  ",
"                             . o    ...o+$&-<;&$**-*%+O+#%;:%@#&*&&#@%;50ryg,   ",
"                                                                        XXoX    ",
"                                                                                ",
"                                                                                ",
"                                                                                ",
"                                                                                "
};
