/* XPM */
static char *result[] = {
/* columns rows colors chars-per-pixel */
"80 80 67 1 ",
"  c #5A5827",
". c #918C3A",
"X c #9C9A43",
"o c #B3AF4C",
"O c #B3B04D",
"+ c #C9C147",
"@ c #C7C14F",
"# c #C9C24A",
"$ c #DFD344",
"% c #DED44B",
"& c #C9C556",
"* c #CDC954",
"= c #D6D25A",
"- c #E0D445",
"; c #E3D94C",
": c #E7DF52",
"> c #E2DD58",
", c #EFDF6C",
"< c #F1DE6E",
"1 c #F4CC7B",
"2 c #F3D376",
"3 c #F1DA72",
"4 c #F3D078",
"5 c #F3D87E",
"6 c #DFE576",
"7 c #EEE766",
"8 c #EDE964",
"9 c #EFE36A",
"0 c #EEE968",
"q c #F0E865",
"w c #F0E26B",
"e c #EFEC72",
"r c #F0E776",
"t c #F0EC72",
"y c #F0EB7D",
"u c #64C3FE",
"i c #FE9E9F",
"p c #F7BC87",
"a c #F8BC87",
"s c #F9B48D",
"d c #F1B88F",
"f c #F8BA89",
"g c #FDA597",
"h c #FBAC95",
"j c #FCA39A",
"k c #FCAE98",
"l c #F0B693",
"z c #FAB395",
"x c #F7BF92",
"c c #F9BC95",
"v c #FBB299",
"b c #FE9EA0",
"n c #D7A9B7",
"m c #F6C283",
"M c #F5C880",
"N c #F6CC8E",
"B c #F3DB84",
"V c #F6D38D",
"C c #F4DD8A",
"Z c #F7C590",
"A c #F9C492",
"S c #F7CB90",
"D c #F8C891",
"F c #D4E280",
"G c #F3E386",
"H c #F1ED82",
"J c #F4E388",
/* pixels */
"oooooooooooooooooooooooooooooooooooooooooooooooooooooooooooooooooooooooooooooooo",
"oooooooooooooooOoooooooooooooooooooooooooooooooooooooooooooooooooooooooooooooooo",
"ooooooooooooOooooooooooooooooooooooooooooooooooooooooooooooooooooooooooooooooooo",
"oooooooooooooooooooooooooooooooooooooooooooooooooooooooooooooooooooooooooooooooo",
"ooooooooooooooooooooooooooooooooooooooooooooooooooooooooOooooooooooooooooooooooo",
"oooooooooooooooooooooooooooooooooooooooooooooooooooooooooooooooooooooooooooooooo",
"ooooooooooooooooooooooooooooooooooooooooooooooooooooooooooOooooooooooooooooooooo",
"oooooooooooooooooooooooooooooooooooooooooooooooooooooooooooooooooooooooooooooooo",
"oooooooooooooooooooooooooooooooooooooooooooooooooooooooooOooOooooooooooooooooooo",
"ooooooooooooooooooooooooooooooooooooooooooooooooooooooooooooooOooooooooooooooooo",
"ooooooooooooooooooooooooooooooooooooooOOooooooooooooooooooOooooooooooooooooooooo",
"ooooooooooooooooooooooooooooooooooooooOOoooooooooooooooooooooooooooooooooooooooo",
"ooooOoooOOOOoOOOooooooooooooooooooOOOOOOooOooooooooooooooooOoOooOooooooooooooooo",
">>>>>>>>>>>>=>>:>>>>>>>>>>>>>%>>>=>>>:>>>>>>>>>:>>>>>>>>>>>>=>>:>>:>>>>>>>>>>>>>",
"88qq8888q88888888888q8888888888888888888q888q88888q88888888888888888q88888888888",
"88888888888888888888888888888888888888888888888888888888888888888888888888888888",
"88888888888888888888888888888888888888888888888888888888888888888888888888888888",
"88888888888888888888888888888888888888888888888888888888888888888888888888888888",
"88888888888888888888888888888888888888888888888888888888888888888888888888888888",
"88888888888888888888888888888888888888888888888888888888888888888888888888888888",
"88888888888888888888888888888888888888888888888888888888888888888888888888888888",
"888888888888888888888888888888888888888888888888888888888888888888888q8q88888888",
"8888888888888888888888888888888888888888888888888888888888888888888qXXXXX*&&&&&&",
"88888888888888888888888888888888888888888888888888888888888888888888     OOOOOOo",
"88888888888888888888888888888888888888888888888888888888888888888888.....@OOooOO",
"88888888888888888888888888888888888888888888888888888888888888888888;;;;;;$OoOOO",
"88888888888888888888888888888888888888888888888888888888888888888888:::::::*ooOO",
"88888888888888888888888888888888888888888888888888888888888888888888;;;;;;;;+OOO",
"888888888888888888888888888888miiiii,8888888888888888888888888888888$$-$$$$$-+OO",
"888888888888888888888888888,igiiiiii38888888888888888888888888888888;$;$$;$;-+OO",
"888888888888888888888888888iiiiiiiiiiis88888888888888888888888888888$$$$$$$$$$-O",
"8888888888888888888888888giiiiiiiiiiiiiim888888888888888888888888888$$$$$$$$$--O",
"8888888888888888888888888iiiiiiiiiiiiiiii88888888888888888888888888888888888888%",
"8888888888888888888888887iiiiiibiiiliiiiij80888888888888888888888888$-$--$--$--$",
"888888888888888888888888siibiiiii86u68iiibjg888888888888888888888888$-$---$$--$-",
"8888888888888888888888801iiiiiiiiplndpiibbbif78888888888888888888888------------",
"888888888888888888888888pjiiiiiiiiiiiiiiiiiij88888888888888888888888888888888888",
"888888888888888888888887gibiiiiiiiiiiiiiii37788888888888888888888888888888888888",
"8888888888888888888888883iiiiiiiiiiiiiiiii78888888888888888888888888888888888888",
"8888888888888888888888888iiiibiibiiiif888888888888888888888888888888888888888888",
"8888888888888888888888888sbbiibbiiiiiiia1888888888811118888888888888888888888888",
"888888888888888888888888881jiibbiiiiiiisw8888888809bjiiiim8888888888888888888888",
"888888888888888888888888887jibbbiiiiiig78888888888<bbbis9b8888888888888888888888",
"88888888888888888888888888888881hiib38888888888880,iiiip7bij88888888888888888888",
"88888888888888888888888888888888,iii88888888888880<biiif7iii,8888888888888888888",
"88888888888888888888888888888887,iii88888888888888wiiiigj1ii10888888888888888888",
"88888888888888888888888888881ssfpiii4424<8888888888zshz,88iih8888888888888888888",
"88888888888888888888888888siibiiiiiiiiiiis8888888888888888jii8888888888888888888",
"88888888888888888888888888iiiiiiiiiiiiiiii8888888888888888jii8888888888888888888",
"88888888888888888888888881iiiibiiiiiiiiiiis788888888888888hii8888888888888888888",
"8888888888888888888888888gijbiiiiiiiiiiijib<88888888888888hii8888888888888888888",
"8888888888888888888888888jbiiiiiiiiiiiiigib388888888888888gii8888888888888888888",
"8888888888888888888888888bbgjbiiiiiiiiiihii188888888888888jii8888888888888888888",
"8888888888888888888888888bjsjbibiiiiiiiizija88888888888888iij8888888888888888888",
"8888888888888888888888888biphiiiiiiiiiiisiis88888888888888iig8888888888888888888",
"8888888888888888888888888ii1siiiiiibiiiifibg88888888888888iiz8888888888888888888",
"8888888888888888888888888ijwmiiiiiiiiiiimhii78888888888888jbf7888888888888888888",
"8888888888888888888888884ih81iiiiiiiiiiiMfii88888888888888ii17888888888888888888",
"8888888888888888888888881bf82iibiiiiiiib1Mii88888888888888ii18888888888888888888",
"888888888888888888888888hi48<iiiiiibiiii13ii88888888888888ii<8888888888888888888",
"88888888888888888888888<iiq80biiibbbiiii3qbi<888888888888wbbq8888888888888888888",
"888888888888888888888884ii888biiibbbiiii30bi28888888888883jb88888888888888888888",
"88888888888888888888888zbb880bbbbibbbbiiw8iif8888888888882bb88888888888888888888",
"tteeeeeeeeeeee08ttttet3bigttrkjkjgkkjkjgrtgghttttttttttttBggttttttttttteeeeeeeee",
"HHHHHHHHHHHHHHHHHHHHHHjbbDHHJkkvkkhkkkvkCHckkJHHHHHHHHHHHJkkHHHHHHHHHHHHHHHHHHHH",
"HHHHHHHHHHHHHHHHHHHHGvbbcHHHvvkkkkvkkkkkkHHVkvcHHHHHHHHHHCkvHHHHHHHHHHHHHHHHHHHH",
"HHHHHyHHHHHHHHHHHHHHbbbGHHHCkkkkkkkkkvhkvGHHcvvvHHHHHHHHGzkvHHHHHHHHHHHHHHHyHHHH",
"HHHHHHHHHHHHHHHHHHHzbbvHHHHckkkkkkkkkkkkvCHHGkkkSHHHHHHHCvkvHHHHHHHHHHHHHHHHHHHH",
"HHHHHHHHHHHHHHHHHHcjbkHHHHzkkkkkvhkkhvkkhvHHHHSvkvvvczvkkkZHHHHHHHHHHHHHHHHHHHHH",
"HHHHHHHHHHHHHHHHHbbbCHHHHJkkvkkkvcAkkkkkkkHHHHHHzkvkvkvkvCHHHHHHHHHHHHHHHHHHHHHH",
"HHHHHHHHHHHHHHHHDbbjHHHHHckkvkkkDHHkkkkkkkCHHHHHHDvvkkvVHHHHHHHHHHHHHHyHHHHHHHHH",
"HyHHHHHHHHHHHHHVbbjHHHHHGkkkkkkkJHHAvkkvkvvGHHHHHHHHHHHHHHHHHHHHHHHHHHHHHHHHHHHy",
"HHHHHHHHHHHHHHVbjVHHHHHJvkvkkkkvGHHJkkkhkkkcHHHHHHHHHHHHHHHHHHHHHHHHHHHHHHHHHHHH",
"HHHHHHyHHHHHHjbbSHHHHHHkkvkkkhhvHHHHvkkkvkkkHHHHHHHHHHHHHHHHHHHHHHHHHHHHHHHHHHHH",
"HHHHHHHHHHHHCjbbHHHHHHGvkkkkkkkAHHHHhkkkkkkkHHHHHHHHHHHHHHHHHHHHHHyHHHHHHHHHHHHH",
"HHHHHHHHHHHHbbbHHHHHHHvkkkkkhkkJHHHHvkkkkkkkcHHHHHHHHHHHHHHyyHHHHHHHHyHHHHHHHHHH",
"HHHHHHHHHHviicHHHHHHHCkkkkvkkkkHHHHHckkvkkkkvHHHHHHHHHHHHHHHHHHHHHHHHHHHHHHHHHHH",
"HHHHHHHHHHibiHHHHHHHHckkkkhkkkkHHHHHSkkkkkkkvGHHHHHHHHHHHHHHHHHHHHHHHHHHHHHHHHHH",
"HHHHyHHHHbbjGHHHHHHHvhkhvkkkkkcHHHHHJvkhvkvhkcHHHHHHHHHHHHHHHHHHHHHHHHHHyHHHHHHH",
"yyyyyyyGbbgGyyyyyyyCkkvkkkkkkkByyyyyyAkkkkkkhkNyyyyyyyyyyyyyyyyyyyyyyyyyyyyyyyyy"
};
